Numix-GalliumOS/24/emblems/emblem-important.svg

<?xml version="1.0" encoding="UTF-8" standalone="no"?>
<svg
   xmlns:dc="http://purl.org/dc/elements/1.1/"
   xmlns:cc="http://creativecommons.org/ns#"
   xmlns:rdf="http://www.w3.org/1999/02/22-rdf-syntax-ns#"
   xmlns:svg="http://www.w3.org/2000/svg"
   xmlns="http://www.w3.org/2000/svg"
   xmlns:sodipodi="http://sodipodi.sourceforge.net/DTD/sodipodi-0.dtd"
   xmlns:inkscape="http://www.inkscape.org/namespaces/inkscape"
   width="24"
   height="24"
   viewBox="0 0 24 24"
   id="svg2"
   version="1.1"
   inkscape:version="0.91 r13725"
   sodipodi:docname="emblem-important.svg">
  <metadata
     id="metadata12">
    <rdf:RDF>
      <cc:Work
         rdf:about="">
        <dc:format>image/svg+xml</dc:format>
        <dc:type
           rdf:resource="http://purl.org/dc/dcmitype/StillImage" />
      </cc:Work>
    </rdf:RDF>
  </metadata>
  <defs
     id="defs10" />
  <sodipodi:namedview
     pagecolor="#ffffff"
     bordercolor="#666666"
     borderopacity="1"
     objecttolerance="10"
     gridtolerance="10"
     guidetolerance="10"
     inkscape:pageopacity="0"
     inkscape:pageshadow="2"
     inkscape:window-width="1366"
     inkscape:window-height="704"
     id="namedview8"
     showgrid="false"
     inkscape:zoom="1"
     inkscape:cx="10.097905"
     inkscape:cy="7.8632031"
     inkscape:window-x="0"
     inkscape:window-y="27"
     inkscape:window-maximized="1"
     inkscape:current-layer="svg2">
    <inkscape:grid
       type="xygrid"
       id="grid4140" />
  </sodipodi:namedview>
  <path
     style="fill:#fff;stroke:#777;stroke-width:.5"
     d="M 25.930511 35.186401 C 25.930511 42.095309 20.446393 47.69322 13.677926 47.69322 C 6.90946 47.69322 1.425342 42.095309 1.425342 35.186401 C 1.425342 28.277492 6.90946 22.679581 13.677926 22.679581 C 20.446393 22.679581 25.930511 28.277492 25.930511 35.186401 Z "
     transform="matrix(.7999 0 0 .78363 1.05909 -15.57329)"
     id="path4" />
  <path
     style="opacity:1;fill:#dc322f;fill-opacity:1;stroke:none;stroke-width:2;stroke-linecap:round;stroke-linejoin:round;stroke-miterlimit:4;stroke-dasharray:none;stroke-opacity:1"
     d="M 10.5 4 C 10.223 4 10 4.223 10 4.5 L 10 13.5 C 10 13.777 10.223 14 10.5 14 L 13.5 14 C 13.777 14 14 13.777 14 13.5 L 14 4.5 C 14 4.223 13.777 4 13.5 4 L 10.5 4 z M 10.5 16 C 10.223 16 10 16.223 10 16.5 L 10 19.5 C 10 19.777 10.223 20 10.5 20 L 13.5 20 C 13.777 20 14 19.777 14 19.5 L 14 16.5 C 14 16.223 13.777 16 13.5 16 L 10.5 16 z "
     id="rect4142" />
</svg>

<svg xmlns="http://www.w3.org/2000/svg" viewBox="0 0 24 24">
 <path d="m 25.931 35.19 c 0 6.909 -5.484 12.507 -12.253 12.507 c -6.768 0 -12.253 -5.598 -12.253 -12.507 c 0 -6.909 5.484 -12.507 12.253 -12.507 c 6.768 0 12.253 5.598 12.253 12.507 Z" transform="matrix(.7999 0 0 .78363 1.05909 -15.57329)" style="fill:#fff;stroke:#777;stroke-width:0.5"/>
 <path d="m 10.5 4 c -0.277 0 -0.5 0.223 -0.5 0.5 l 0 9 c 0 0.277 0.223 0.5 0.5 0.5 l 3 0 c 0.277 0 0.5 -0.223 0.5 -0.5 l 0 -9 c 0 -0.277 -0.223 -0.5 -0.5 -0.5 l -3 0 z m 0 12 c -0.277 0 -0.5 0.223 -0.5 0.5 l 0 3 c 0 0.277 0.223 0.5 0.5 0.5 l 3 0 c 0.277 0 0.5 -0.223 0.5 -0.5 l 0 -3 c 0 -0.277 -0.223 -0.5 -0.5 -0.5 l -3 0 z" style="fill:#dc322f;opacity:1;fill-opacity:1;stroke:none"/>
</svg>
